icons/communication/comment-search-24.svg

<svg width="24" height="24" viewBox="0 0 24 24" fill="none" xmlns="http://www.w3.org/2000/svg">
<path fill-rule="evenodd" clip-rule="evenodd" d="M11.25 5.25C9.17893 5.25 7.5 6.92893 7.5 9C7.5 11.0711 9.17893 12.75 11.25 12.75C11.8838 12.75 12.481 12.5927 13.0045 12.3151L14.7197 14.0303C15.0126 14.3232 15.4874 14.3232 15.7803 14.0303C16.0732 13.7374 16.0732 13.2626 15.7803 12.9697L14.1672 11.3566C14.688 10.7126 15 9.89273 15 9C15 6.92893 13.3211 5.25 11.25 5.25ZM9 9C9 7.75736 10.0074 6.75 11.25 6.75C12.4926 6.75 13.5 7.75736 13.5 9C13.5 10.2426 12.4926 11.25 11.25 11.25C10.0074 11.25 9 10.2426 9 9Z" fill="black"/>
<path fill-rule="evenodd" clip-rule="evenodd" d="M2.75 2C1.7835 2 1 2.7835 1 3.75V16.25C1 17.2165 1.7835 18 2.75 18H5V20.7183C5 21.8076 6.29633 22.3757 7.09724 21.6374L10.9712 18.0662C11.0173 18.0236 11.0778 18 11.1406 18H21.25C22.2165 18 23 17.2165 23 16.25V3.75C23 2.7835 22.2165 2 21.25 2H2.75ZM2.5 3.75C2.5 3.61193 2.61193 3.5 2.75 3.5H21.25C21.3881 3.5 21.5 3.61193 21.5 3.75V16.25C21.5 16.3881 21.3881 16.5 21.25 16.5H11.1406C10.7011 16.5 10.2776 16.6654 9.95446 16.9633L6.5 20.1478V17.5C6.5 16.9477 6.05228 16.5 5.5 16.5H2.75C2.61193 16.5 2.5 16.3881 2.5 16.25V3.75Z" fill="black"/>
</svg>

<svg xmlns="http://www.w3.org/2000/svg" width="24" height="24"><path fill-rule="evenodd" d="M11.25 5.25a3.75 3.75 0 101.755 7.065l1.715 1.715a.75.75 0 101.06-1.06l-1.613-1.613A3.75 3.75 0 0011.25 5.25zM9 9a2.25 2.25 0 114.5 0A2.25 2.25 0 019 9z"/><path fill-rule="evenodd" d="M2.75 2A1.75 1.75 0 001 3.75v12.5c0 .966.784 1.75 1.75 1.75H5v2.718c0 1.09 1.296 1.658 2.097.92l3.874-3.572a.25.25 0 01.17-.066H21.25A1.75 1.75 0 0023 16.25V3.75A1.75 1.75 0 0021.25 2H2.75zM2.5 3.75a.25.25 0 01.25-.25h18.5a.25.25 0 01.25.25v12.5a.25.25 0 01-.25.25H11.14c-.439 0-.862.165-1.186.463L6.5 20.148V17.5a1 1 0 00-1-1H2.75a.25.25 0 01-.25-.25V3.75z"/></svg>
